X:92
T:The Bonnie BLue Flag
S:American Veteran Fifer #92
M:6/8
L:1/8
Q:1/8=300
K:A 
%%MIDI program 72
%%MIDI transpose 8
%%MIDI ratio 3 1
"^Play 8va only." e | c2 c c2 c | d2 d d2 d | e2 e c2 A | B3-Bze |
a2 a g2 a | f2ec2A | c2BA2G | A3-A2 :|
|: e | a3-a2e | g3-g2e | f2fa2f | e3-e2e |
a2ee2e | g2fe2d | c2dc2B | A3-A2 :|


